packages/sources/icons/src/vitamix/test_buy.svg

<svg width="24" height="24" viewBox="0 0 24 24" fill="none" xmlns="http://www.w3.org/2000/svg">
<path fill-rule="evenodd" clip-rule="evenodd" d="M2.10836 5.26347L21.6084 1.51347C22.0709 1.42452 22.5 1.77896 22.5 2.24998V18C22.5 18.3596 22.2448 18.6686 21.8916 18.7365L2.39164 22.4865C1.92909 22.5754 1.5 22.221 1.5 21.75V5.99998C1.5 5.64038 1.75523 5.33138 2.10836 5.26347ZM3 6.61949V20.842L21 17.3805V3.15795L3 6.61949ZM15.9394 7.75172C16.2146 7.44213 16.6887 7.41425 16.9983 7.68944C17.3079 7.96463 17.3357 8.43868 17.0606 8.74827L11.0606 15.4983C10.7739 15.8208 10.2748 15.8355 9.96967 15.5303L6.96967 12.5303C6.67678 12.2374 6.67678 11.7626 6.96967 11.4697C7.26256 11.1768 7.73744 11.1768 8.03033 11.4697L10.4679 13.9072L15.9394 7.75172Z" fill="#001018"/>
</svg>

<svg width="24" height="24" fill="none" xmlns="http://www.w3.org/2000/svg"><path fill-rule="evenodd" clip-rule="evenodd" d="m2.108 5.263 19.5-3.75a.75.75 0 0 1 .892.737V18a.75.75 0 0 1-.608.736l-19.5 3.75a.75.75 0 0 1-.892-.736V6a.75.75 0 0 1 .608-.737zM3 6.62v14.223l18-3.461V3.158L3 6.619zm12.94 1.133a.75.75 0 0 1 1.12.996l-6 6.75a.75.75 0 0 1-1.09.032l-3-3a.75.75 0 1 1 1.06-1.06l2.438 2.437 5.471-6.155z" fill="#001018"/></svg>
